static/assets/images/tokens/superoeth.svg

<svg width="256" height="256" viewBox="0 0 256 256" fill="none" xmlns="http://www.w3.org/2000/svg">
<path d="M128 256C198.692 256 256 198.692 256 128C256 57.3084 198.692 0 128 0C57.3084 0 0 57.3084 0 128C0 198.692 57.3084 256 128 256Z" fill="url(#paint0_linear_9890_1734)"/>
<path opacity="0.2" d="M207.744 207.232C251.477 163.2 251.264 91.9966 207.232 48.2562C163.2 4.52284 91.9963 4.73618 48.2559 48.7682L207.744 207.232Z" fill="white"/>
<path d="M120.816 62.6366C136.67 60.9668 152.583 65.1762 165.565 74.4733C178.546 83.7703 187.7 97.5142 191.305 113.12C194.911 128.725 192.718 145.117 185.141 159.212C177.563 173.306 165.122 184.133 150.159 189.654L127.978 221C178.896 220.769 220.091 179.208 220.091 127.986C220.091 79.8922 183.762 40.3244 137.186 35.4707L120.816 62.6366Z" fill="white"/>
<path d="M125.443 35C75.3049 36.1073 35 77.3268 35 127.986C35 175.388 70.2737 214.504 115.885 220.262L134.982 193.271C118.895 195.149 102.687 190.958 89.4994 181.51C76.3114 172.063 67.0823 158.032 63.6004 142.135C60.1184 126.239 62.6315 109.609 70.6527 95.4689C78.6739 81.3286 91.6321 70.6843 107.016 65.5986L125.443 35Z" fill="white"/>
<path d="M150.159 189.654C162.704 185.001 173.528 176.595 181.173 165.568C188.818 154.542 192.916 141.425 192.915 127.986H220.091C220.091 179.217 178.896 220.769 127.978 221L150.159 189.654Z" fill="url(#paint1_linear_9890_1734)"/>
<path d="M125.443 35C75.3049 36.1073 35 77.3268 35 127.986C35 127.986 62.176 128.383 62.176 127.986C62.1778 114.17 66.5113 100.706 74.5609 89.5064C82.6104 78.3068 93.9667 69.9414 107.016 65.5986L125.443 35Z" fill="url(#paint2_linear_9890_1734)"/>
<path d="M127.38 204.03L173.845 138.256L127.38 165.819L80.9326 138.256L127.38 204.03Z" fill="white"/>
<path opacity="0.1" d="M127.38 204.03L173.845 138.256L127.38 165.819V204.021V204.03Z" fill="#4C52F9"/>
<path d="M127.234 157.09L173.938 129.481L127.234 51.9604L80.5391 129.472L127.234 157.09Z" fill="url(#paint3_linear_9890_1734)"/>
<path d="M127.234 157.09L173.938 129.481L127.234 51.9604L80.5391 129.472L127.234 157.09Z" fill="white"/>
<path opacity="0.1" d="M127.234 157.081L80.5391 129.49L127.234 51.9697V157.081Z" fill="#4C52F9"/>
<path opacity="0.1" d="M127.234 157.09V107.474L80.5391 129.491L127.234 157.099V157.09ZM127.234 157.09V107.474L173.938 129.481L127.234 157.09Z" fill="#4C52F9"/>
<defs>
<linearGradient id="paint0_linear_9890_1734" x1="0" y1="128" x2="256" y2="128" gradientUnits="userSpaceOnUse">
<stop offset="0.25" stop-color="#1A82FF"/>
<stop offset="0.5" stop-color="#7A26F3"/>
<stop offset="0.74" stop-color="#D6453B"/>
</linearGradient>
<linearGradient id="paint1_linear_9890_1734" x1="66.6113" y1="244.53" x2="168.848" y2="177.9" gradientUnits="userSpaceOnUse">
<stop stop-color="#4C52F9" stop-opacity="0.5"/>
<stop offset="1" stop-color="white"/>
</linearGradient>
<linearGradient id="paint2_linear_9890_1734" x1="177.49" y1="-7.81585" x2="79.6316" y2="62.5272" gradientUnits="userSpaceOnUse">
<stop stop-color="#4C52F9" stop-opacity="0.5"/>
<stop offset="1" stop-color="white"/>
</linearGradient>
<linearGradient id="paint3_linear_9890_1734" x1="27.8856" y1="80.0307" x2="109.922" y2="129.842" gradientUnits="userSpaceOnUse">
<stop stop-color="#1C313F"/>
<stop offset="1" stop-color="white"/>
</linearGradient>
</defs>
</svg>

<svg xmlns="http://www.w3.org/2000/svg" fill="none" viewBox="0 0 256 256"><path fill="url(#paint0_linear_9890_1734)" d="M128 256c70.692 0 128-57.308 128-128S198.692 0 128 0 0 57.308 0 128s57.308 128 128 128"/><path fill="#fff" d="M207.744 207.232c43.733-44.032 43.52-115.235-.512-158.976C163.2 4.523 91.996 4.736 48.256 48.768z" opacity=".2"/><path fill="#fff" d="M120.816 62.637a65.12 65.12 0 0 1 44.749 11.836c12.981 9.297 22.135 23.041 25.74 38.647a66 66 0 0 1-6.164 46.092c-7.578 14.094-20.019 24.921-34.982 30.442L127.978 221c50.918-.231 92.113-41.792 92.113-93.014 0-48.094-36.329-87.662-82.905-92.515z"/><path fill="#fff" d="M125.443 35C75.305 36.107 35 77.327 35 127.986c0 47.402 35.274 86.518 80.885 92.276l19.097-26.991a65.12 65.12 0 0 1-45.483-11.761c-13.188-9.447-22.417-23.478-25.899-39.375a66 66 0 0 1 7.053-46.666c8.02-14.14 20.98-24.785 36.363-29.87z"/><path fill="url(#paint1_linear_9890_1734)" d="M150.159 189.654a65.44 65.44 0 0 0 31.014-24.086 65.96 65.96 0 0 0 11.742-37.582h27.176c0 51.231-41.195 92.783-92.113 93.014z"/><path fill="url(#paint2_linear_9890_1734)" d="M125.443 35C75.305 36.107 35 77.327 35 127.986c0 0 27.176.397 27.176 0a65.95 65.95 0 0 1 12.385-38.48A65.4 65.4 0 0 1 107.016 65.6z"/><path fill="#fff" d="m127.38 204.03 46.465-65.774-46.465 27.563-46.447-27.563z"/><path fill="#4C52F9" d="m127.38 204.03 46.465-65.774-46.465 27.563z" opacity=".1"/><path fill="url(#paint3_linear_9890_1734)" d="m127.234 157.09 46.704-27.609-46.704-77.52-46.695 77.511z"/><path fill="#fff" d="m127.234 157.09 46.704-27.609-46.704-77.52-46.695 77.511z"/><path fill="#4C52F9" d="M127.234 157.081 80.539 129.49l46.695-77.52z" opacity=".1"/><path fill="#4C52F9" d="M127.234 157.09v-49.616l-46.695 22.017 46.695 27.608zm0 0v-49.616l46.704 22.007z" opacity=".1"/><defs><linearGradient id="paint0_linear_9890_1734" x1="0" x2="256" y1="128" y2="128" gradientUnits="userSpaceOnUse"><stop offset=".25" stop-color="#1A82FF"/><stop offset=".5" stop-color="#7A26F3"/><stop offset=".74" stop-color="#D6453B"/></linearGradient><linearGradient id="paint1_linear_9890_1734" x1="66.611" x2="168.848" y1="244.53" y2="177.9" gradientUnits="userSpaceOnUse"><stop stop-color="#4C52F9" stop-opacity=".5"/><stop offset="1" stop-color="#fff"/></linearGradient><linearGradient id="paint2_linear_9890_1734" x1="177.49" x2="79.632" y1="-7.816" y2="62.527" gradientUnits="userSpaceOnUse"><stop stop-color="#4C52F9" stop-opacity=".5"/><stop offset="1" stop-color="#fff"/></linearGradient><linearGradient id="paint3_linear_9890_1734" x1="27.886" x2="109.922" y1="80.031" y2="129.842" gradientUnits="userSpaceOnUse"><stop stop-color="#1C313F"/><stop offset="1" stop-color="#fff"/></linearGradient></defs></svg>
